assets/icons/24px/outline/phone-call-in-24px.svg

<svg width="24" height="24" viewBox="0 0 24 24" fill="none" xmlns="http://www.w3.org/2000/svg">
<path d="M17.935 19.5C13.535 23.9 0.100002 10.4651 4.50003 6.06503L5.73154 4.83348C6.65814 3.90686 8.21063 4.10681 8.87219 5.23798L9.40652 6.15159C9.79535 6.81642 9.76787 7.64546 9.33586 8.28309L8.9735 8.81793C8.57008 9.41337 8.64608 10.2114 9.15465 10.7199L11.2174 12.7827L13.2803 14.8453C13.7888 15.3538 14.5868 15.4298 15.1822 15.0264L15.7168 14.6642C16.3544 14.2322 17.1834 14.2047 17.8482 14.5935L18.7619 15.1279C19.8931 15.7894 20.0931 17.3419 19.1665 18.2685L17.935 19.5Z" stroke="white" stroke-width="2" stroke-linecap="round" stroke-linejoin="round"/>
<path d="M15 9.00005L20 3.99995M20 3.99995L16 3.99991M20 3.99995L20 7.9999" stroke="white" stroke-width="1.5" stroke-linecap="round" stroke-linejoin="round"/>
</svg>

<svg width="24" height="24" fill="none" xmlns="http://www.w3.org/2000/svg"><path d="M17.935 19.5C13.535 23.9.1 10.465 4.5 6.065l1.232-1.232a2 2 0 0 1 3.14.405l.535.914a2 2 0 0 1-.071 2.131l-.363.535a1.5 1.5 0 0 0 .182 1.902l2.062 2.063 2.063 2.062a1.5 1.5 0 0 0 1.902.181l.535-.362a2 2 0 0 1 2.131-.07l.914.534a2 2 0 0 1 .404 3.14L17.935 19.5z" stroke="#fff" stroke-width="2" stroke-linecap="round" stroke-linejoin="round"/><path d="M15 9l5-5m0 0h-4m4 0v4" stroke="#fff" stroke-width="1.5" stroke-linecap="round" stroke-linejoin="round"/></svg>
